X:1
T:Title
%%score { ( 1 3 5 ) | ( 2 4 ) }
L:1/8
M:4/4
K:Bb
V:1 treble nm="Grand Piano"
V:3 treble 
V:5 treble 
V:2 bass 
V:4 bass 
V:1
 z4 z2[Q:1/4=100] [B,D][CE] | [DF][DG][DA][DB] [Ge]2 [Fd]2 | [=EG]2 [Ec]4 [Ec][EB] | %3
 [FA]2 [Fe]2 [Ge]2 [Ae]2 |[M:3/4] [Fd]6 |[M:1/4] [B,D][CE] |[M:4/4] [DF][DG][DA][DB] [Ge]2 [Fd]2 | %7
 [Fc]2 [A,F]2 [CFc]2 [DFB]2 | [CFA]3 [CFA] [C=EB]2 [B,EG]2 | z2 e2 c2 d2 |[Q:1/4=94] B4 z4 | %11
 d4 F4 | G2 F2 z4 | F4 D4 | B4 z4 | d4 =d4 | f2 A2 z4 | F6 z2 | [Ec]2 [Ge]>e [Fd]2 [Ec]2 | %19
 [DB]2 [DA][DB] [DF]4 | [Ec]2 [Ge]>e [Fd]2 [Ec]2 |[M:7/8] cB[_DA] [DB] [F,=DF]3 |[M:1/8] z | %23
[M:4/4] B4 z4 | d4 z4 | f3 e GA d>c |[M:3/4] [DB]6 |] %27
V:2
 z4 z2 [B,,F,][B,,F,] | [B,,B,][B,,B,][B,,B,][B,,B,] [B,,B,]2 [B,,B,]2 | %2
 [C,B,]2 [C,G,]4 [C,G,][C,C] | [F,C]2 [F,A,]2 [F,B,]2 [F,C]2 |[M:3/4] [B,,B,]6 | %5
[M:1/4] [B,,F,][B,,F,] |[M:4/4] [B,,B,][B,,B,][B,,B,][B,,B,] [B,,B,]2 [B,,B,]2 | %7
 [C,A,]2 C,2 A,,2 G,,2 | C,3 C, C,2 C,2 | z2[K:treble] G2 E2 F2 | %10
 B,,[F,B,][F,B,][F,B,] [F,B,D]2 [F,B,D]2 | B,,[F,B,][F,B,][F,B,D] [F,B,D]2 [F,B,]2 | %12
 F,,[F,A,][F,A,E][F,A,] [F,A,E]2 [F,A,E]2 | B,,[F,B,][F,B,][F,B,C] [F,B,]2 F,2 | %14
 B,,[F,B,][F,B,][F,B,] [F,B,D]2 [F,B,D]2 | %15
 =B,,[K:treble][_A,=B,D][A,B,D][A,B,DF] [A,B,DF]2 [A,B,D]2 | %16
 C,[A,C][K:treble][A,CF][A,C][K:bass] [B,C=E]2 [B,CE]2 | F,,[F,A,][F,A,][F,A,] [F,A,]2 [F,A,]2 | %18
 F,,F, .A,>[K:treble]G A,2[K:bass] F,2 | B,,F,B,F, B,2 F,2 | %20
 F,,F, .A,>[K:treble]G A,2[K:bass] F,2 |[M:7/8] B,,F,=E, E, B,,3 |[M:1/8] F | %23
[M:4/4] B,,[F,B,][F,B,][F,B,] [F,B,D]2 [F,B,D]2 | G,,[G,=B,][G,B,][G,B,] [CEG][E,C][D,B,][C,C] | %25
 [F,DF]3 [F,CF] [F,B,E][F,CE] [F,G,F]>[F,A,E] |[M:3/4] [B,,B,]6 |] %27
V:3
 x8 | x8 | x8 | x8 |[M:3/4] x6 |[M:1/4] x2 |[M:4/4] x8 | x8 | x8 | [A,F]6 z2 | z DDD FBAB | %11
 z DDF z2 D2 | z E z z/ =E/ F2 G>F | z DDE z2 B,2 | z DDD FBAB | z FF_d z2 F2 | z F z z/ A/ A2 G2 | %17
 z CCC C2 C2 | x8 | x8 | x8 |[M:7/8] D2 z z z z2 |[M:1/8] x |[M:4/4] z DDD FBAB | %24
 z FFF e[Gc][Gd][Ge] | x8 |[M:3/4] x6 |] %27
V:4
 x8 | x8 | x8 | x8 |[M:3/4] x6 |[M:1/4] x2 |[M:4/4] x8 | x8 | x8 | F,6[K:treble] z2 | x8 | x8 | %12
 x8 | x8 | x8 | x[K:treble] x7 | x2[K:treble] x2[K:bass] x4 | x8 | z2 z F,[K:treble] z4[K:bass] | %19
 x8 | z2 z F,[K:treble] z4[K:bass] |[M:7/8] x7 |[M:1/8] x |[M:4/4] x8 | x8 | x8 |[M:3/4] x6 |] %27
V:5
 x8 | x8 | x8 | x8 |[M:3/4] x6 |[M:1/4] x2 |[M:4/4] x8 | x8 | x8 | x8 | x8 | x8 | z2 z E z4 | x8 | %14
 x8 | x8 | z2 z F z4 | x8 | x8 | x8 | x8 |[M:7/8] x7 |[M:1/8] x |[M:4/4] x8 | x8 | x8 | %26
[M:3/4] x6 |] %27

